X:1
T:Title
%%score { ( 1 5 6 ) | ( 2 3 4 ) }
L:1/8
M:2/4
K:Eb
V:1 treble nm="Grand Piano, Piano"
V:5 treble 
V:6 treble 
V:2 bass 
V:3 bass 
V:4 bass 
V:1
 z4[Q:1/4=110] | [Ac]3 B | A2 [CG]2 | B4 | [C=EG]4- | [CEG]2 C2 | B4 | [CG]2 F2 | %8
 A4[K:bass][K:treble] | F4- | F2 z2 | [CEG]3 F | E2 D2 | [DF]3 E | [G,D]2 C2 | [EGc]4 | %16
 [FAc]2 [FA]2 | [EG]4 | [CEG]4- | [CEG]2 z2 |[M:1/4] z2 |[M:2/4] [Ac]3 B | A2 [CG]2 | B4 | %24
 [C=EG]4- | [CEG]2 C2 | B4 | [CG]2 F2 | A4[K:bass][K:treble] | F4- | F2 z2 | [CEG]3 F | E2 D2 | %33
 [DF]3 E | [G,D]2 C2 | [FAc]3 A | [CEG]2 [A,CF]2 | [G,CE]3 [=B,D] | [G,C]4 | z4 | c3 d | [Ge]4- | %42
 [Ge]4 | c4- | c2 e2 | [Fd]3 c | [D=B]4- | [DB]2 =B2 | z2 z d | c4- | c2 z2 | c3 d | [Ge]4- | %53
 [Ge]4 | c4- | c2 e2 | [Fd]3 c | [D=B]4- | [DB]2 =B2 | [Ec]3 d | c4- | c2 C2 | G2 E2 | F4 | F2 z2 | %65
 [DF]2 D2 | E3 F | E2 C2 |[M:3/4] c2 [GB]2 .A2 |[M:2/4] G4- | G2 C2 | G2 E2 | F4 | z4 | %74
 [=B,DF]2 D2 | E3 F | E2 C2 |[M:3/4] E2 [DF]2 C=B, |[M:2/4] C4 |[M:1/4] C2 |] %80
V:2
 z2 C2 | z2 z G | F2 z2 | G3 F | [C,,C,]2 G,,2 | z4 | [CG]3 F | z2 A,2 | F3 =E | z2 C,2 | z2 E2 | %11
 z2 z A, | G,2 =B,2 | z2 z C | z2 G,2 | z2 z[K:treble] =B | z4 | z2 z _G | C,2 G,,2 | C,2 z2 | %20
[M:1/4] C2 |[M:2/4] z2 z G | F2 z2 | G3 F | [C,,C,]2 G,,2 | z4 | [CG]3 F | z2 A,2 | F3 =E | %29
 z2 C,2 | z2 E2 | z2 z A, | G,2 =B,2 | z2 z C | z2 G,2 | z2 z F | C,2 F,,2 | C,2 z G, | C,4- | %39
 C,2 z2 | E3 F | C,4 | G,4 | C2 G,2 | z2[K:treble] G2 | z2 z E | G,,2 D,2 | z2 D2 | E3 G | %49
 C,2 G,2 | C2 z2 | E3 F | C,4 | G,4 | C2 G,2 | E2[K:treble] G2 | z2 z E | G,,2 D,2 | z2 D2 | %59
 z2 z F | C,2 G,2 | E2 z2 | [C,E,G,]4 | z2 z G | z2 D2 | G,,4 | [G,C]4- | [G,C]2 z2 | %68
[M:3/4] A2 z2[K:treble] FG |[M:2/4][K:bass] C,2 G,2 | C2 z2 | [C,E,G,]4 | z2 z G | F2 D2 | G,,4 | %75
 C4- | C2 z2 |[M:3/4] G,2 G,,2 E,D, |[M:2/4] [C,G,]2 z2 |[M:1/4] z2 |] %80
V:3
 x4 | z2 C,2- | C,2 z2 | x4 | x4 | =E,4- | E,2 z2 | C,4- | C,2 z2 | F,,4 | A,4 | C,4- | C,4 | %13
 G,,4 | C,,4 | C,4[K:treble] | F,,4 | C4 | x4 | x4 |[M:1/4] x2 |[M:2/4] z2 C,2- | C,2 z2 | x4 | %24
 x4 | =E,4- | E,2 z2 | C,4- | C,2 z2 | F,,4 | A,4 | C,4- | C,4 | G,,4 | C,,4 | z2 C,2 | x4 | %37
 z2 G,,2 | x4 | x4 | x4 | x4 | x4 | x4 | E4[K:treble] | G,4 | x4 | G,4- | G,2 z2 | x4 | x4 | x4 | %52
 x4 | x4 | x4 | x2[K:treble] x2 | G,4 | x4 | G,4 | G,4 | x4 | x4 | x4 | F,,4 | F,,4 | x4 | C,4- | %67
 C,4- |[M:3/4] C,2 [F,,F,]4[K:treble] |[M:2/4][K:bass] x4 | x4 | x4 | F,,4- | F,,4 | x4 | %75
 [C,G,]4- | [C,-G,]4 |[M:3/4] C,2 z2 z2 |[M:2/4] x4 |[M:1/4] x2 |] %80
V:4
 x4 | F,,4- | F,,2 F,2- | F,2 z2 | x4 | x4 | x4 | x4 | x4 | x4 | x4 | x4 | x4 | x4 | x4 | %15
 x3[K:treble] x | z2 C,2- | C,2 G,,2 | x4 | x4 |[M:1/4] x2 |[M:2/4] F,,4- | F,,2 F,2- | F,2 z2 | %24
 x4 | x4 | x4 | x4 | x4 | x4 | x4 | x4 | x4 | x4 | x4 | F,,4 | x4 | x4 | x4 | x4 | x4 | x4 | x4 | %43
 x4 | x2[K:treble] x2 | x4 | x4 | x4 | x4 | x4 | x4 | x4 | x4 | x4 | x4 | x2[K:treble] x2 | x4 | %57
 x4 | x4 | x4 | x4 | x4 | x4 | x4 | x4 | x4 | x4 | x4 |[M:3/4] x4[K:treble] x2 | %69
[M:2/4][K:bass] x4 | x4 | x4 | x4 | x4 | x4 | x4 | x4 |[M:3/4] x6 |[M:2/4] x4 |[M:1/4] x2 |] %80
V:5
 x4 | x4 | x4 | z2 z A | x4 | x4 | z2 z A | x4 | z2[K:bass] z[K:treble] G | A,4 | x4 | x4 | x4 | %13
 x4 | x4 | x4 | x4 | x4 | x4 | x4 |[M:1/4] x2 |[M:2/4] x4 | x4 | z2 z A | x4 | x4 | z2 z A | x4 | %28
 z2[K:bass] z[K:treble] G | A,4 | x4 | x4 | x4 | x4 | x4 | x4 | x4 | x4 | x4 | x4 | x4 | x4 | x4 | %43
 E4 | x4 | x4 | x4 | x4 | c4 | E4 | x4 | x4 | x4 | x4 | E4 | x4 | x4 | x4 | x4 | x4 | E4 | x4 | %62
 x4 | [A,C]4- | [A,C]4 | =B,4 | x4 | x4 |[M:3/4] x6 |[M:2/4] E4 | x4 | x4 | [A,C]4- | [A,C]4 | x4 | %75
 x4 | x4 |[M:3/4] x6 |[M:2/4] z2 G,2 |[M:1/4] x2 |] %80
V:6
 x4 | x4 | x4 | z2 C2 | x4 | x4 | z2 G,2 | x4 | z2[K:bass] C,2[K:treble] | x4 | x4 | x4 | x4 | x4 | %14
 x4 | x4 | x4 | x4 | x4 | x4 |[M:1/4] x2 |[M:2/4] x4 | x4 | z2 C2 | x4 | x4 | z2 G,2 | x4 | %28
 z2[K:bass] C,2[K:treble] | x4 | x4 | x4 | x4 | x4 | x4 | x4 | x4 | x4 | x4 | x4 | x4 | x4 | x4 | %43
 x4 | x4 | x4 | x4 | x4 | z2 G,2 | x4 | x4 | x4 | x4 | x4 | x4 | x4 | x4 | x4 | x4 | x4 | x4 | x4 | %62
 x4 | x4 | x4 | x4 | x4 | x4 |[M:3/4] x6 |[M:2/4] x4 | x4 | x4 | x4 | x4 | x4 | x4 | x4 | %77
[M:3/4] x6 |[M:2/4] x4 |[M:1/4] x2 |] %80

